src/img/needle-response-active.svg

<svg id="Layer_1" data-name="Layer 1" xmlns="http://www.w3.org/2000/svg" width="718.961" height="78.855" viewBox="0 0 718.961 78.855"><defs><style>.cls-1{fill:#752b2b;}</style></defs><title>needle-response-active</title><path class="cls-1" d="M348.614,939.9c9.136.313,17-1.345,23.257-4.971l.033-.014c40.5-19.587,55.673-55.248,80.941-55.248,27.053,0,29.976,14.552,29.976,22.824a20.944,20.944,0,0,1-3.221,11.278,13.166,13.166,0,0,0-26.111,2.671,13.4,13.4,0,0,0,9.8,12.987c.094.029.184.064.28.088.114.029.229.049.343.076.06.013.119.027.179.039,13.719,3.138,27.6-6.227,29.152-24.6l402.805-5.643a3.344,3.344,0,1,0,0-6.681l-401.811-7.392H489.15c-6.537-11.154-20.079-17.63-36.688-17.63-22.679,0-33.308,12.245-48.729,18.347-.92-10.817-4.986-18.774-6.741-18.774-1.776,0-8.3,6.882-12.76,17.734a27.538,27.538,0,0,0-24.347-14.645c-13.152,0-27.24,6-27.24,21.948a13.453,13.453,0,1,0,22.5-9.935,13.05,13.05,0,0,1,6.2-1.458c13.8,0,15.848,14.637,15.848,20.434,0,17.46-10.86,27.533-28.581,26.018-26.88-2.3-31.523-46.81-60.885-49.041l-.008-.093h-2.212l-.092,0-.017,0h-9.676V863.805A2.726,2.726,0,0,0,273,861.079h-6.2a2.726,2.726,0,0,0-2.726,2.726v12.2c-5.4,15.9-22.988,9.1-31.409.294q-.7-.86-1.459-1.661c-.1-.119-.194-.239-.286-.359v.061A29.314,29.314,0,1,0,231,915.117v.062c.112-.148.238-.29.355-.435.432-.465.854-.939,1.256-1.431,8.64-9,26.292-12.555,31.467,2.571V927.5a2.725,2.725,0,0,0,2.726,2.726H273a2.725,2.725,0,0,0,2.726-2.726V912.218h14.314C310.309,912.265,318.779,938.876,348.614,939.9ZM209.928,908.242a13.473,13.473,0,1,1,13.448-13.5A13.474,13.474,0,0,1,209.928,908.242Z" transform="translate(-180.588 -861.079)"/></svg>

<?xml version="1.0" encoding="UTF-8" standalone="no"?>
<!DOCTYPE svg PUBLIC "-//W3C//DTD SVG 1.1//EN" "http://www.w3.org/Graphics/SVG/1.1/DTD/svg11.dtd">
<svg width="100%" height="100%" viewBox="0 0 719 91" version="1.1" xmlns="http://www.w3.org/2000/svg" xmlns:xlink="http://www.w3.org/1999/xlink" xml:space="preserve" xmlns:serif="http://www.serif.com/" style="fill-rule:evenodd;clip-rule:evenodd;stroke-linejoin:round;stroke-miterlimit:1.41421;">
    <g transform="matrix(1,0,0,1,-180.588,-849.534)">
        <path d="M348.614,939.9C357.75,940.213 365.614,938.555 371.871,934.929L371.904,934.915C412.404,915.328 427.577,879.667 452.845,879.667C479.898,879.667 482.821,894.219 482.821,902.491C482.843,906.48 481.726,910.394 479.6,913.769C478.454,907.548 472.978,902.988 466.652,902.988C459.429,902.988 453.486,908.932 453.486,916.154C453.486,916.25 453.487,916.345 453.489,916.44C453.453,922.465 457.485,927.808 463.289,929.427C463.383,929.456 463.473,929.491 463.569,929.515C463.683,929.544 463.798,929.564 463.912,929.591C463.972,929.604 464.031,929.618 464.091,929.63C477.81,932.768 491.691,923.403 493.243,905.03L896.048,899.387C896.099,899.389 896.15,899.39 896.201,899.39C898.035,899.39 899.545,897.881 899.545,896.046C899.545,894.212 898.035,892.702 896.201,892.702C896.15,892.702 896.099,892.704 896.048,892.706L494.237,885.314L489.15,885.314C482.613,874.16 469.071,867.684 452.462,867.684C429.783,867.684 419.154,879.929 403.733,886.031C402.813,875.214 398.747,867.257 396.992,867.257C395.216,867.257 388.692,874.139 384.232,884.991C379.462,875.989 370.072,870.341 359.885,870.346C346.733,870.346 332.645,876.346 332.645,892.294C332.645,892.301 332.645,892.308 332.645,892.316C332.645,899.696 338.718,905.769 346.098,905.769C353.478,905.769 359.551,899.696 359.551,892.316C359.551,888.526 357.95,884.907 355.145,882.359C357.059,881.368 359.19,880.867 361.345,880.901C375.145,880.901 377.193,895.538 377.193,901.335C377.193,918.795 366.333,928.868 348.612,927.353C321.732,925.053 317.089,880.543 287.727,878.312L287.719,878.219L285.507,878.219L285.415,878.219L285.398,878.219L275.722,878.219L275.722,863.805C275.722,862.311 274.494,861.081 273,861.079L266.8,861.079C265.305,861.079 264.074,862.31 264.074,863.805L264.074,876.005C258.674,891.905 241.086,885.105 232.665,876.299C232.198,875.726 231.712,875.172 231.206,874.638C231.106,874.519 231.012,874.399 230.92,874.279L230.92,874.34C225.403,868.663 217.814,865.456 209.898,865.456C193.817,865.456 180.584,878.689 180.584,894.77C180.584,910.851 193.817,924.084 209.898,924.084C217.854,924.084 225.477,920.845 231,915.117L231,915.179C231.112,915.031 231.238,914.889 231.355,914.744C231.787,914.279 232.209,913.805 232.611,913.313C241.251,904.313 258.903,900.758 264.078,915.884L264.078,927.5C264.078,927.5 264.078,927.501 264.078,927.501C264.078,928.996 265.308,930.226 266.803,930.226L273.001,930.226C274.496,930.226 275.726,928.996 275.726,927.501C275.726,927.501 275.726,927.5 275.726,927.5L275.726,912.218L290.04,912.218C310.309,912.265 318.779,938.876 348.614,939.9ZM209.928,908.242C209.92,908.242 209.911,908.242 209.903,908.242C202.512,908.242 196.43,902.16 196.43,894.769C196.43,887.378 202.512,881.296 209.903,881.296C217.284,881.296 223.361,887.361 223.376,894.742C223.376,894.751 223.376,894.759 223.376,894.768C223.376,902.15 217.31,908.228 209.928,908.242Z" style="fill:rgb(117,43,43);fill-rule:nonzero;"/>
    </g>
</svg>
